X: 66
T: Boys Them Flies are Buzzin'
C:Donna Vaughan
B: canberra pickers and fiddlers
M:4/4
L:1/8
Q: 1/4=100
K:Dmix
V:1 
[|: defd a3 (a | a)bag f d3 | defd a2 g2 | fe d2 c3 (c | 
c)`d`c`B A2 G2 | FF G2  A4:|AcAG FE D2 |C C3 D3 (D | 
[|:D)A,CA, DA,CA, | D D3 F3(F | F)EFG A3 (A | A)cAG FE D2|
E F3 G4 | BdBA FE D2 | F G3A3 (A | A)cAG FE D2|C C3 D4 :|
Notes: From a transcription by John Lamancusa, by permission. See http://www.mne.psu.edu/lamancusa/tunes.htmTranscription: AK/Fiddler's Companion
% abcbook-tune_id 63ae8f1c6160d4a519f05e5f


% abcbook-boost 0
% abcbook-tablature 
% abcbook-transpose 
% abcbook-lastupdated 1672384284225
% abcbook-soundfonts 
% abcbook-repeats 1


